carriers/postCa.svg

<svg width="128" height="64" viewBox="0 0 128 64" fill="none" xmlns="http://www.w3.org/2000/svg">
<rect width="128" height="64" rx="6" fill="#004A8E"/>
<path fill-rule="evenodd" clip-rule="evenodd" d="M51.5711 32.209C51.5711 32.064 51.5711 31.9189 51.5711 31.7824H0V32.5376H51.5797C51.5797 32.4309 51.5797 32.3157 51.5797 32.209" fill="white"/>
<path fill-rule="evenodd" clip-rule="evenodd" d="M76.3945 31.7738C76.3945 31.9189 76.3945 32.064 76.3945 32.2005C76.3945 32.337 76.3945 32.4224 76.3945 32.529H128V31.7738H76.3945Z" fill="white"/>
<path fill-rule="evenodd" clip-rule="evenodd" d="M76.403 32.192C76.3652 34.6397 75.6046 37.0215 74.2169 39.0382C72.8293 41.0548 70.8764 42.6163 68.6039 43.5263C66.3314 44.4363 63.8405 44.6541 61.4445 44.1526C59.0485 43.651 56.8542 42.4523 55.1375 40.7073C53.4207 38.9622 52.2582 36.7485 51.7959 34.3446C51.3336 31.9407 51.5923 29.4538 52.5394 27.1965C53.4864 24.9391 55.0797 23.0121 57.1188 21.6577C59.1579 20.3032 61.5519 19.5818 63.9998 19.584C65.6435 19.5952 67.2689 19.9303 68.783 20.5702C70.2971 21.21 71.6702 22.1421 72.8238 23.3131C73.9773 24.4841 74.8887 25.871 75.5058 27.3946C76.1229 28.9181 76.4336 30.5483 76.4201 32.192" fill="#D3200C"/>
<path fill-rule="evenodd" clip-rule="evenodd" d="M60.0532 33.8347L60.9321 32.9387L70.771 32.4907L71.2105 32.0427H61.5166L56.2302 25.7792L73.8515 31.744L67.9806 37.7131H56.2302L57.4078 36.5141L67.2425 36.0704L67.6777 35.6224H58.2868L59.17 34.7221L69.0046 34.2784L69.4441 33.8347H60.0532Z" fill="white"/>
<path fill-rule="evenodd" clip-rule="evenodd" d="M81.1433 22.3402H82.483C83.6308 22.3402 84.6804 22.6816 84.6804 23.9616C84.6804 25.2416 83.7801 25.6682 82.6537 25.6682H82.2014V27.6992H81.1433V22.3402ZM82.2014 24.8192H82.5726C83.1017 24.8192 83.5796 24.6442 83.5796 24.0256C83.5796 23.4069 83.1145 23.1722 82.5726 23.1722H82.2014V24.8021V24.8192Z" fill="white"/>
<path fill-rule="evenodd" clip-rule="evenodd" d="M89.6552 22.2677C91.3106 22.2677 92.2365 23.4027 92.2365 25.0197C92.2365 26.6368 91.3277 27.8059 89.6552 27.8059C87.9826 27.8059 87.0696 26.6624 87.0696 25.0197C87.0696 23.3771 87.9698 22.2677 89.6552 22.2677ZM89.6552 26.9611C90.7304 26.9611 91.1314 25.9883 91.1314 25.0197C91.1314 24.0512 90.7048 23.1125 89.6552 23.1125C88.6056 23.1125 88.1704 24.0811 88.1704 25.0197C88.1704 25.9584 88.5714 26.9611 89.6552 26.9611Z" fill="white"/>
<path fill-rule="evenodd" clip-rule="evenodd" d="M97.9282 23.3429C97.5892 23.1937 97.2233 23.1153 96.853 23.1125C96.7481 23.0991 96.6416 23.1083 96.5406 23.1396C96.4396 23.1709 96.3465 23.2235 96.2676 23.2939C96.1887 23.3643 96.1259 23.4508 96.0833 23.5476C96.0408 23.6444 96.0195 23.7492 96.021 23.8549C96.021 24.7808 98.3335 24.3925 98.3335 26.1888C98.3335 27.3621 97.4204 27.8058 96.358 27.8058C95.8982 27.8044 95.441 27.7354 95.0012 27.601L95.1036 26.6282C95.4653 26.8395 95.8752 26.9541 96.294 26.961C96.6994 26.961 97.2284 26.752 97.2284 26.2698C97.2284 25.2501 94.9202 25.6768 94.9202 23.8976C94.9202 22.7029 95.8332 22.2677 96.7591 22.2677C97.1935 22.2597 97.6262 22.3246 98.0391 22.4597L97.941 23.3429" fill="white"/>
<path fill-rule="evenodd" clip-rule="evenodd" d="M102.144 23.2021H100.634V22.3573H104.712V23.2021H103.198V27.712H102.144V23.2021Z" fill="white"/>
<path fill-rule="evenodd" clip-rule="evenodd" d="M107.277 22.3573H110.391V23.2021H108.33V24.5205H110.212V25.3653H108.33V26.8715H110.408V27.712H107.277V22.3573Z" fill="white"/>
<path fill-rule="evenodd" clip-rule="evenodd" d="M116.198 23.3429C115.862 23.1941 115.499 23.1157 115.131 23.1125C115.025 23.0957 114.916 23.1024 114.812 23.1321C114.709 23.1619 114.613 23.2139 114.532 23.2847C114.45 23.3555 114.385 23.4432 114.342 23.5417C114.298 23.6402 114.276 23.7471 114.278 23.8549C114.278 24.7808 116.591 24.3925 116.591 26.1888C116.591 27.3621 115.673 27.8058 114.607 27.8058C114.15 27.8043 113.695 27.7353 113.258 27.601L113.356 26.6282C113.717 26.8384 114.125 26.953 114.543 26.961C114.948 26.961 115.481 26.752 115.481 26.2698C115.481 25.2501 113.177 25.6768 113.177 23.8976C113.177 22.7029 114.09 22.2677 115.016 22.2677C115.451 22.2597 115.883 22.3246 116.296 22.4597L116.194 23.3429" fill="white"/>
<path fill-rule="evenodd" clip-rule="evenodd" d="M85.0645 41.8731C84.6726 41.9749 84.2704 42.0321 83.8656 42.0437C82.1589 42.0437 80.9771 41.1904 80.9771 39.3643C80.9771 37.5381 82.0779 36.5056 83.8656 36.5056C84.2739 36.5075 84.6785 36.5827 85.0603 36.7275L84.9834 37.632C84.6375 37.4335 84.2428 37.3359 83.8442 37.3504C82.7562 37.3504 82.0779 38.2037 82.0779 39.2917C82.0779 40.3797 82.7392 41.1989 83.8656 41.1989C84.2633 41.203 84.6579 41.1276 85.0261 40.9771L85.0645 41.8731Z" fill="white"/>
<path fill-rule="evenodd" clip-rule="evenodd" d="M89.2411 36.5994H90.4528L92.5136 41.9669H91.3403L90.8795 40.721H88.7462L88.2896 41.9669H87.1931L89.2411 36.5994ZM89.8299 37.6704L89.0662 39.8805H90.6022L89.8427 37.6704H89.8299Z" fill="white"/>
<path fill-rule="evenodd" clip-rule="evenodd" d="M95.0269 36.5994H96.3282L98.3335 40.6016H98.3506V36.5994H99.3661V41.9456H98.069L96.0594 37.9477H96.0381V41.9456H95.0269V36.5994Z" fill="white"/>
<path fill-rule="evenodd" clip-rule="evenodd" d="M103.94 36.5994H105.131L107.2 41.9669H106.027L105.579 40.7424H103.445L102.98 41.9669H101.884L103.94 36.5994ZM104.533 37.6704L103.77 39.8805H105.318L104.533 37.6704Z" fill="white"/>
<path fill-rule="evenodd" clip-rule="evenodd" d="M109.773 36.5994H111.219C112.832 36.5994 114.257 37.1498 114.257 39.2704C114.257 41.3909 112.832 41.9669 111.219 41.9669H109.773V36.5994ZM110.827 41.1136H111.42C111.89 41.0908 112.334 40.8878 112.659 40.5467C112.985 40.2055 113.166 39.7523 113.166 39.281C113.166 38.8098 112.985 38.3566 112.659 38.0154C112.334 37.6742 111.89 37.4712 111.42 37.4485H110.827V41.1136Z" fill="white"/>
<path fill-rule="evenodd" clip-rule="evenodd" d="M118.613 36.5994H119.816L121.894 41.9669H120.716L120.264 40.7424H118.131L117.67 41.9669H116.569L118.613 36.5994ZM119.197 37.6704L118.434 39.8805H119.974L119.21 37.6704H119.197Z" fill="white"/>
<path fill-rule="evenodd" clip-rule="evenodd" d="M10.4958 27.6352C10.1041 27.7385 9.70177 27.7958 9.29685 27.8059C7.59019 27.8059 6.40405 26.9525 6.40405 25.1264C6.40405 23.3003 7.50485 22.2677 9.29685 22.2677C9.70218 22.2716 10.1037 22.3467 10.483 22.4896L10.4147 23.3941C10.0678 23.1981 9.67383 23.1007 9.27552 23.1125C8.18325 23.1125 7.50485 23.9659 7.50485 25.0496C7.50485 26.1333 8.17045 26.9611 9.29685 26.9611C9.69342 26.9673 10.087 26.8917 10.4531 26.7392L10.4958 27.6352Z" fill="white"/>
<path fill-rule="evenodd" clip-rule="evenodd" d="M14.6729 22.3402H15.8675L17.9198 27.712H16.7678L16.3155 26.4874H14.1822L13.7214 27.712H12.6206L14.6729 22.3402ZM15.2574 23.4154L14.4894 25.6256H16.0297L15.2702 23.4154H15.2574Z" fill="white"/>
<path fill-rule="evenodd" clip-rule="evenodd" d="M20.4585 22.3573H21.7513L23.7652 26.3637H23.778V22.3573H24.7892V27.712H23.5006L21.4825 23.7099H21.4654V27.712H20.4585V22.3573Z" fill="white"/>
<path fill-rule="evenodd" clip-rule="evenodd" d="M29.3674 22.3402H30.5621L32.6314 27.6949H31.4581L31.0016 26.4704H28.8682L28.4117 27.6949H27.3066L29.3674 22.3402ZM29.952 23.4154L29.1882 25.6256H30.72L29.952 23.4325V23.4154Z" fill="white"/>
<path fill-rule="evenodd" clip-rule="evenodd" d="M35.1997 22.3402H36.6418C38.2546 22.3402 39.684 22.8949 39.684 25.0197C39.684 27.1445 38.2546 27.6949 36.6418 27.6949H35.1997V22.3402ZM36.2664 26.8714H36.8594C37.0956 26.8712 37.3293 26.8229 37.5461 26.7293C37.763 26.6357 37.9584 26.4988 38.1206 26.3271C38.2827 26.1553 38.4081 25.9523 38.4892 25.7305C38.5702 25.5086 38.605 25.2726 38.5917 25.0368C38.607 24.799 38.573 24.5607 38.492 24.3367C38.411 24.1127 38.2847 23.9078 38.1209 23.7348C37.9572 23.5618 37.7595 23.4245 37.5402 23.3314C37.3209 23.2382 37.0848 23.1913 36.8466 23.1936H36.2664V26.8586V26.8714Z" fill="white"/>
<path fill-rule="evenodd" clip-rule="evenodd" d="M44.0532 22.3402H45.2479L47.313 27.6949H46.1482L45.6959 26.4704H43.5626L43.0932 27.712H41.9924L44.0532 22.3402ZM44.6378 23.4154L43.874 25.6256H45.4186L44.6548 23.4154H44.6378Z" fill="white"/>
<path fill-rule="evenodd" clip-rule="evenodd" d="M6.57056 36.5994H7.90602C9.05375 36.5994 10.1034 36.9365 10.1034 38.2122C10.1034 39.488 9.20309 39.9189 8.06816 39.9189H7.64149V41.9669H6.57056V36.5994ZM7.62442 39.0741H7.99562C8.52042 39.0741 8.99829 38.8992 8.99829 38.2762C8.99829 37.6533 8.54175 37.4229 7.99562 37.4229H7.62442V39.057V39.0741Z" fill="white"/>
<path fill-rule="evenodd" clip-rule="evenodd" d="M15.0698 36.5056C16.7252 36.5056 17.6554 37.6405 17.6554 39.2576C17.6554 40.8747 16.7508 42.0437 15.0698 42.0437C13.3887 42.0437 12.5098 40.896 12.5098 39.2576C12.5098 37.6192 13.4015 36.5056 15.0698 36.5056ZM15.0698 41.1989C16.1535 41.1989 16.5546 40.2304 16.5546 39.2576C16.5546 38.2848 16.1279 37.3504 15.0698 37.3504C14.0116 37.3504 13.5935 38.3147 13.5935 39.2576C13.5935 40.2005 13.9903 41.1989 15.0698 41.1989Z" fill="white"/>
<path fill-rule="evenodd" clip-rule="evenodd" d="M23.3472 37.5765C23.0095 37.4286 22.645 37.3516 22.2763 37.3504C22.1694 37.3335 22.0602 37.3403 21.9562 37.3702C21.8523 37.4002 21.7562 37.4527 21.6748 37.5239C21.5934 37.5952 21.5286 37.6834 21.4851 37.7825C21.4416 37.8815 21.4204 37.9889 21.4229 38.0971C21.4229 39.0187 23.7355 38.6304 23.7355 40.4224C23.7355 41.5957 22.8224 42.0437 21.7557 42.0437C21.2984 42.0411 20.8441 41.9707 20.4075 41.8347L20.5013 40.8704C20.8667 41.0761 21.2769 41.1889 21.696 41.1989C22.0971 41.1989 22.6304 40.9899 22.6304 40.5077C22.6304 39.4923 20.3179 39.9104 20.3179 38.1397C20.3179 36.9408 21.2309 36.5056 22.1653 36.5056C22.5997 36.4978 23.0323 36.5627 23.4453 36.6976L23.3429 37.5765" fill="white"/>
<path fill-rule="evenodd" clip-rule="evenodd" d="M27.5711 37.44H26.0564V36.5994H30.1353V37.44H28.6249V41.9456H27.5711V37.44Z" fill="white"/>
</svg>

<svg xmlns="http://www.w3.org/2000/svg" width="128" height="64" fill="none"><rect width="128" height="64" fill="#004A8E" rx="6"/><path fill="#fff" fill-rule="evenodd" d="M51.571 32.209v-.427H0v.756h51.58v-.329M76.394 31.774v.755H128v-.755H76.394Z" clip-rule="evenodd"/><path fill="#D3200C" fill-rule="evenodd" d="M76.403 32.192A12.415 12.415 0 1 1 64 19.584a12.506 12.506 0 0 1 12.42 12.608" clip-rule="evenodd"/><path fill="#fff" fill-rule="evenodd" d="m60.053 33.835.88-.896 9.838-.448.44-.448h-9.694l-5.287-6.264 17.622 5.965-5.871 5.97H56.23l1.177-1.2 9.835-.444.435-.448h-9.391l.883-.9 9.835-.444.44-.443h-9.392ZM81.143 22.34h1.34c1.148 0 2.197.342 2.197 1.622s-.9 1.706-2.026 1.706H82.2V27.7h-1.058V22.34Zm1.058 2.48h.372c.529 0 1.007-.176 1.007-.794 0-.62-.465-.854-1.007-.854H82.2V24.82ZM89.655 22.268c1.656 0 2.582 1.135 2.582 2.752 0 1.617-.91 2.786-2.582 2.786-1.672 0-2.585-1.144-2.585-2.786 0-1.643.9-2.752 2.585-2.752Zm0 4.693c1.075 0 1.476-.973 1.476-1.941 0-.969-.426-1.907-1.476-1.907s-1.485.968-1.485 1.907c0 .938.401 1.941 1.485 1.941ZM97.928 23.343a2.72 2.72 0 0 0-1.075-.23.739.739 0 0 0-.832.742c0 .926 2.313.537 2.313 2.334 0 1.173-.914 1.617-1.976 1.617a4.692 4.692 0 0 1-1.357-.205l.103-.973a2.44 2.44 0 0 0 1.19.333c.405 0 .934-.209.934-.691 0-1.02-2.308-.593-2.308-2.372 0-1.195.913-1.63 1.84-1.63.433-.008.866.057 1.28.192l-.099.883M102.144 23.202h-1.51v-.845h4.078v.845h-1.514v4.51h-1.054v-4.51ZM107.277 22.357h3.114v.845h-2.061v1.318h1.882v.845h-1.882v1.507h2.078v.84h-3.131v-5.355ZM116.198 23.343a2.692 2.692 0 0 0-1.067-.23.74.74 0 0 0-.853.742c0 .926 2.313.537 2.313 2.334 0 1.173-.918 1.617-1.984 1.617a4.646 4.646 0 0 1-1.349-.205l.098-.973c.361.21.769.325 1.187.333.405 0 .938-.209.938-.691 0-1.02-2.304-.593-2.304-2.372 0-1.195.913-1.63 1.839-1.63.435-.008.867.057 1.28.192l-.102.883M85.064 41.873a5.382 5.382 0 0 1-1.198.17c-1.707 0-2.889-.853-2.889-2.679 0-1.826 1.1-2.858 2.889-2.858.408.002.813.077 1.194.221l-.077.905a2.133 2.133 0 0 0-1.139-.282c-1.088 0-1.766.854-1.766 1.942s.661 1.907 1.788 1.907c.397.004.792-.071 1.16-.222l.038.896ZM89.241 36.6h1.212l2.06 5.367H91.34l-.46-1.246h-2.134l-.456 1.246h-1.097l2.048-5.368Zm.589 1.07-.764 2.21h1.536l-.76-2.21h-.012ZM95.027 36.6h1.301l2.005 4.002h.018v-4.003h1.015v5.347H98.07l-2.01-3.998h-.02v3.998h-1.012v-5.347ZM103.94 36.6h1.191l2.069 5.367h-1.173l-.448-1.225h-2.134l-.465 1.225h-1.096l2.056-5.368Zm.593 1.07-.763 2.21h1.548l-.785-2.21ZM109.773 36.6h1.446c1.613 0 3.038.55 3.038 2.67s-1.425 2.697-3.038 2.697h-1.446v-5.368Zm1.054 4.514h.593a1.835 1.835 0 0 0 0-3.665h-.593v3.665ZM118.613 36.6h1.203l2.078 5.367h-1.178l-.452-1.225h-2.133l-.461 1.225h-1.101l2.044-5.368Zm.584 1.07-.763 2.21h1.54l-.764-2.21h-.013ZM10.496 27.635c-.392.103-.794.16-1.2.17-1.706 0-2.892-.852-2.892-2.679 0-1.826 1.1-2.858 2.893-2.858.405.004.807.079 1.186.222l-.068.904a2.184 2.184 0 0 0-1.14-.281c-1.092 0-1.77.853-1.77 1.937 0 1.083.665 1.911 1.792 1.911.396.006.79-.07 1.156-.222l.043.896ZM14.673 22.34h1.194l2.053 5.372h-1.152l-.453-1.225h-2.133l-.46 1.225H12.62l2.052-5.372Zm.584 1.075-.768 2.21h1.54l-.759-2.21h-.013ZM20.459 22.357h1.292l2.014 4.007h.013v-4.007h1.011v5.355h-1.288l-2.018-4.002h-.018v4.002H20.46v-5.355ZM29.367 22.34h1.195l2.07 5.355h-1.174l-.456-1.225h-2.134l-.456 1.225h-1.105l2.06-5.355Zm.585 1.075-.764 2.21h1.532l-.768-2.192v-.018ZM35.2 22.34h1.442c1.613 0 3.042.555 3.042 2.68s-1.43 2.675-3.042 2.675H35.2V22.34Zm1.066 4.531h.593a1.736 1.736 0 0 0 1.733-1.834 1.732 1.732 0 0 0-1.745-1.843h-.58v3.677ZM44.053 22.34h1.195l2.065 5.355h-1.165l-.452-1.225h-2.133l-.47 1.242h-1.1l2.06-5.372Zm.585 1.075-.764 2.21h1.545l-.764-2.21h-.017ZM6.57 36.6h1.336c1.148 0 2.197.337 2.197 1.612 0 1.276-.9 1.707-2.035 1.707h-.427v2.048h-1.07v-5.368Zm1.054 2.474h.372c.524 0 1.002-.175 1.002-.798s-.456-.853-1.002-.853h-.372V39.074ZM15.07 36.506c1.655 0 2.585 1.135 2.585 2.752 0 1.617-.904 2.786-2.585 2.786s-2.56-1.148-2.56-2.786c0-1.639.892-2.752 2.56-2.752Zm0 4.693c1.084 0 1.485-.969 1.485-1.941 0-.973-.427-1.908-1.485-1.908s-1.476.965-1.476 1.908c0 .942.396 1.94 1.476 1.94ZM23.347 37.577a2.691 2.691 0 0 0-1.07-.227.74.74 0 0 0-.854.747c0 .922 2.313.533 2.313 2.325 0 1.174-.914 1.622-1.98 1.622a4.621 4.621 0 0 1-1.349-.21l.094-.964a2.56 2.56 0 0 0 1.195.329c.401 0 .934-.21.934-.691 0-1.016-2.312-.598-2.312-2.368 0-1.2.913-1.634 1.847-1.634.435-.008.867.057 1.28.192l-.102.879M27.571 37.44h-1.515v-.84h4.08v.84h-1.511v4.506H27.57V37.44Z" clip-rule="evenodd"/></svg>
